X:1
T:Ave Regina Cælorum
T:Sebastiano Cherici 1647–1704
T:Ave Regina Cælorum
T:Dominica ad Completorium
T:(c) Wim Looyestijn - 2019, May be freely copied for non-commercial use.
T:(c) Wim Looyestijn - 2019, May be freely copied for non-commercial use.
T:(c) Wim Looyestijn - 2019, May be freely copied for non-commercial use.
T:(c) Wim Looyestijn - 2019, May be freely copied for non-commercial use.
T:(c) Wim Looyestijn - 2019, May be freely copied for non-commercial use.
T:(c) Wim Looyestijn - 2019, May be freely copied for non-commercial use.
T:(c) Wim Looyestijn - 2019, May be freely copied for non-commercial use.
T:(c) Wim Looyestijn - 2019, May be freely copied for non-commercial use.
T:(c) Wim Looyestijn - 2019, May be freely copied for non-commercial use.
T:(c) Wim Looyestijn - 2019, May be freely copied for non-commercial use.
T:(c) Wim Looyestijn - 2019, May be freely copied for non-commercial use.
T:(c) Wim Looyestijn - 2019, May be freely copied for non-commercial use.
C:Sebastiano Cherici
C:1647–1704
Z:(c) Wim Looyestijn - 2019, May be freely copied for non-commercial use.
%%score [ 1 2 3 ] 4
L:1/8
Q:1/4=60
M:4/4
K:G
V:1 alto1 nm="Canto" snm="C"
V:2 alto nm="Alto" snm="A"
V:3 bass nm="Basso" snm="B"
V:4 bass nm="Organo" snm="Org"
V:1
 x8 | z8 | x8 | z2 F4 E2 | E8 | z8 | z2 GA/B/ E2 E2 | z4 z2 FG/A/ | BB z A G2 FF | E4 DF AA/B/ | %10
w: |||A- *|ve,||a- ve Re- gi- na,|a- ve Re-|gi- na, Re- gi- na cæ-|lo- rum, Re- gi- na cæ-|
 ^c2 c2 z4 | z8 | z4 dd/d/ dc/d/ | BG d/B/ c/d/ ed/d/ cB | Bc/B/ A2 G4 | z2 dd dd/d/ dd | %16
w: lo- rum,||a- ve Re- gi- na cæ-|lo- rum, a- * ve * Do- mi- na An- ge-|lo- * * * rum,|a- ve Do- mi- na An- ge-|
 d2 ^c2 d2 dc | BB/B/ AG FD z2 | z8 | z8 | z8 | z8 | z2 dd dc/B/ c2- | cB/A/ B3 A/G/ A2- | %24
w: lo- * rum, a- ve|Do- mi- na An- ge- lo- rum,|||||a- ve Do- * * *||
 AG/F/ GA/B/ cF/F/ GA | Bc/B/ A2 G4 | z2 dd dc/B/ ^cB/A/ | B>B B2 AA d2- | de/d/ ^c3 d/c/ B2- | %29
w: * * * * * * * mi- na An- ge-|lo- * * * rum,|a- ve Do- * * * * *|* mi- na, a- ve Do-||
 BB/^c/ dd d2 c2 | d8 |[M:3/2] z12 | z12 | z12 | z4 A2 B2 c2 d2 | e4 B4 ^c4 | A4 A2 ^G2 A2 B2 | %37
w: * mi- na An- ge- lo- *|rum.||||Sal- * ve *|ra- dix, *|sal- ve * * *|
 ^G4 E4 z4 | z12 | z12 | z12 | z4 B4 B4 | ^c4 c4 z4 | A4 B4 ^c4 | B8 ^c4- | c4 B8 | A4 d4 A4 | %47
w: por- ta,||||lux est|or- ta,|mun- do *|lux est|* or-|ta, ex qua|
 B4 A4 G4 | F8 E4- | E4 E8 | D12 | z12 | z12 | z4 A2 B2 ^c2 d2 | e4 B4 ^c4 | A4 A2 ^G2 A2 B2 | %56
w: mun- do *|lux est|* or-|ta,|||sal- * ve *|ra- dix, *|sal- ve * * *|
 ^G4 E8 | z12 | z12 | z4 F4 F4 | ^G4 G4 z4 | z4 E4 E4 | F4 F4 z4 | ^G4 E4 A4 | A8 ^G4- | G4 A8 | %66
w: por- ta,|||ex qua|mun- do|lux est|or- ta,|lux * est|or- *|* ta,|
 z4 F4 F4 | ^G4 G4 z4 | z4 ^c4 c4 | d4 d4 z4 | B8 ^c4- | c4 B8 | A4 d4 A4 | B4 A4 G4 | F8 E4- | %75
w: lux est|or- ta,|ex qua|mun- do|lux est|* or-|ta, ex qua|mun- do *|lux est|
 E4 E8 | F12 | E8 E4- | E4 E8 | D12 |[M:4/4] z8 | z8 | z8 | z8 | z8 | z8 | z8 | z8 | z8 | z8 | z8 | %91
w: * or-|ta,|lux est|* or-|ta.||||||||||||
 z8 | z8 | z8 | e/d/e/f/ ee f2 f2 | e3 d ^c2 A2 | B/A/B/^c/ BB B2 c2 | B/A/B/^c/ BB A3 B/^G/ | %98
w: |||Gau- * * * * de Vir- go|glo- ri- o- sa,|su- * * * * per om- nes|spe- * * * * ci- o- * *|
 A3 ^G/A/ F/A/G/B/ A/^c/B/d/ | ^c/e/d/c/ B2 A4 | d/c/d/e/ dc B2 B2 | e/d/e/f/ ed ^c2 c2 | %102
w: |* * * * * sa,|su- * * * * per om- nes,|su- * * * * per om- nes,|
 d/c/d/e/ d^c Bcde | de/d/ ^c2 B4 | e/d/e/f/ ed ^c2 c2 | d/c/d/e/ dc B^cde | fg/f/ e2 d4 | %107
w: su- * * * * per om- nes spe- ci-|o- * * * sa,|su- * * * * per om- nes,|su- * * * * per om- nes spe- ci-|o- * * * sa,|
 e3 e e2 f2 | e3 d d4 | d4 z4 | z8 | z8 | z8 | z8 | z8 | z8 | z8 | z8 | z2 A3 DGG | G2 FF E4 | %120
w: su- per om- nes|spe- ci- o-|sa.|||||||||et pro no- bis|Chri- stum ex- o-|
 F2 FG/A/ B/A/G/F/ EF/G/ | A2 GG G2 F2 | G3 F E2 E2 | z8 | z4 z2 d2- | dGcc c2 BB | A4 G2 GA | %127
w: ra, ex- * * o- * * * * * *|* ra, ex- o- *|ra, ex- o- ra,||et|* pro no- bis Chri- stum ex-|o- ra, ex- *|
 B2 B^c d2 d2 | z8 | z4 z2 FG/A/ | B/A/G/F/ EF/G/ A2 Gd | c/B/c/d/ c2 B2 Bc/d/ | %132
w: o- ra, ex- o- ra,||ex- * *|o- * * * * * * * ra, ex-|o- * * * * ra, ex- * *|
 e/d/c/B/ AB/c/ d/c/d/e/ d2 | ^c2 A3 DGG | G2 FF E4 | DA d4 ^c2 | d16 |] %137
w: o- * * * * * * * * * * *|ra, et pro no- bis|Chri- stum ex- o-|ra, ex- o- *|ra.|
V:2
 x8 | z8 | x8 | z2 D6- | D2 ^CB, C4 | z2 FG/A/ D2 D2 | z4 z2 ^CD/E/ | F2 F2 z2 DE/F/ | %8
w: |||A-|* * * ve,|a- ve Re- gi- na,|a- ve Re-|gi- na, a- ve Re-|
 GG z D D^CDD | D2 ^C2 DD FF/^G/ | A2 A2 AA/A/ AG/A/ | FD A/F/ G/A/ BB/A/ GF | FG/F/ E2 D4 | %13
w: gi- na, Re- gi- * na cæ-|lo- * rum, Re- gi- na cæ-|lo- rum, a- ve Re- gi- na cæ-|lo- rum, a- * ve * Do- mi- na An- ge-|lo- * * * rum,|
 z2 GG GG/G/ GG | GA/G/ F2 G4 | z8 | z8 | z4 z2 AG | FF/F/ ED ^CCAA | AG/F/ G3 F/E/ F2- | %20
w: a- ve Do- mi- na An- ge-|lo- * * * rum,|||a- ve|Do- mi- na An- ge- lo- rum, a- ve|Do- * * * * * *|
 FE/D/ E3 D/C/ DE/F/ | G^C/C/ DE F/A/G/F/ E2 | D4 z4 | z8 | z8 | z4 z2 GG | GF/E/ FE/D/ E>E E2 | %27
w: |* mi- na An- ge- lo- * * * *|rum,|||a- ve|Do- * * * * * * mi- na,|
 z4 z2 AA | AG/F/ GF/E/ F>F F2 | DE FD E4 | D8 |[M:3/2] z4 D2 E2 F2 G2 | A4 E4 F4 | %33
w: a- ve|Do- * * * * * * mi- na|An- * ge- * lo-|rum.|Sal- * ve *|ra- dix, *|
 D4 D2 ^C2 D2 E2 | ^C4 A,8 | z12 | z12 | z12 | z12 | z12 | z4 F4 F4 | ^G4 G4 z4 | z4 E4 E4 | %43
w: sal- ve * * *|por- ta,||||||ex qua|mun- do|lux est|
 F4 ^G4 A4 | ^G8 A4- | A4 ^G8 | A4 D4 D4 | D4 D6 ^C2 | D8 D4- | D4 ^C8 | D12 | z12 | z12 | z12 | %54
w: or- * ta,|lux est|* or-|ta, ex qua|mun- do *|lux est|* or-|ta,||||
 z12 | z12 | z4 E2 F2 ^G2 A2 | B4 F4 ^G4 | E4 E2 D2 E2 F2 | ^D4 D4 z4 | z4 B,4 B,4 | ^C4 C4 z4 | %62
w: ||sal- * ve *|ra- dix, *|sal- ve * * *|por- ta,|lux est|or- ta,|
 z4 D4 ^C4 | B,8 B,4- | B,4 B,8 | A,8 z4 | z4 ^D4 D4 | E4 E4 z4 | z4 E4 E4 | F4 F4 z4 | ^G8 A4- | %71
w: mun- do|lux est|* or-|ta,|lux est|or- ta,|ex qua|mun- do|lux est|
 A4 A4 ^G4 | A4 D4 D4 | D4 D6 ^C2 | D8 D4- | D4 D4 ^C4 | D12 | C8 D4- | D4 D4 ^C4 | D12 | %80
w: * or- *|ta, ex qua|mun- * do|lux est|* or- *|ta,|lux est|* or- *|ta.|
[M:4/4] A/G/A/B/ AA B2 B2 | A/G/A/B/ AG F2 D2 | E/D/E/F/ EE E2 F2 | E/D/E/F/ EE D3 E/^C/ | %84
w: Gau- * * * * de Vir- go|glo- * * * * ri- o- sa,|su- * * * * per om- nes|spe- * * * * ci- o- * *|
 D3 ^C/D/ B,/D/C/E/ D/F/E/G/ | F/A/G/F/ E2 D4 | G/F/G/A/ GF E2 E2 | A/G/A/B/ AG F2 F2 | %88
w: |* * * * * sa,|su- * * * * per om- nes,|su- * * * * per om- nes,|
 G/F/G/A/ GF EFGA | GA/G/ F2 E4 | A/G/A/B/ AG F2 F2 | B/A/B/^c/ BA ^G2 E2 | E3 E F3 F | GE A4 ^G2 | %94
w: su- * * * * per om- nes spe- ci-|o- * * * sa,|su- * * * * per om- nes,|su- * * * * per om- nes,|su- per om- nes|spe- ci- o- *|
 A4 z4 | z8 | z8 | z8 | z8 | z8 | z8 | z8 | z8 | z8 | z8 | z8 | z8 | z8 | z8 | z8 | z8 | z8 | z8 | %113
w: sa.|||||||||||||||||||
 z8 | z8 | z8 | z8 | z8 | z8 | z8 | z2 D3 G,CC | C2 B,B, A,4 | G,2 D2 ^CC CD/E/ | %123
w: |||||||et pro no- bis|Chri- stum ex- o-|ra, ex- o- ra, ex- * *|
 F/E/D/C/ B,C/D/ E2 DD | DE/D/ ^C2 D4 | z8 | z8 | z4 z2 A2- | ADGG G2 FF | E4 D2 F2- | %130
w: o- * * * * * * * ra, ex-|o- * * * ra,|||et|* pro no- bis Chri- stum ex-|o- ra, et|
 FB,EE D2 DG | G2 F2 G2 DE/F/ | G/F/E/D/ ^CD/E/ F/E/F/G/ F2 | E2 F3 B,ED | ^C2 DD D2 C2 | %135
w: * pro no- bis Chri- stum ex-|o- * ra, ex- * *|o- * * * * * * * * * * *|ra, et pro no- bis|Chri- stum ex- o- *|
 D2 z F E4 | D16 |] %137
w: ra, ex- o-|ra.|
V:3
 x8 | z8 | x8 | z2 D2 ^G,4 | A,4 A,4 | z4 z2 B,C/D/ | G,2 G,2 z4 | z2 F,G,/A,/ B,B, z A, | %8
w: |||A- *|* ve,|a- ve Re-|gi- na,|a- ve Re- gi- na, Re-|
 G,G, z F, E,2 D,D, | A,2 A,,2 D,2 z2 | z8 | z8 | z8 | z8 | z4 G,G,/G,/ G,F,/G,/ | %15
w: gi- na, Re- gi- na cæ-|lo- * rum,|||||a- ve Re- gi- na cæ-|
 E,^C, A,/F,/ G,/A,/ B,A,/A,/ G,F, | E,F,/G,/ A,A,, D,2 z2 | z4 z2 D,E, | F,F,/F,/ ^G,G, A,A,A,F, | %19
w: lo- rum, a- * ve * Do- mi- na An- ge-|lo- * * * * rum,|a- ve|Do- mi- na An- ge- lo- rum, a- ve|
 B,3 A,/G,/ A,3 G,/F,/ | G,3 F,/E,/ F,3 E,/D,/ | E,E,/E,/ D,G, A,2 A,,2 | D,2 D,D, E,3 D,/C,/ | %23
w: Do- * * * * *||* mi- na An- ge- lo- *|rum, a- ve Do- * *|
 D,3 C,/B,,/ C,3 B,,/A,,/ | B,,3 A,,/G,,/ A,,A,,/A,,/ G,,C, | D,4 G,,4 | z4 z2 A,A, | %27
w: |* * * * mi- na An- ge-|lo- rum,|a- ve|
 A,G,/F,/ G,F,/E,/ F,3 E,/D,/ | E,3 D,/^C,/ D,3 E,/F,/ | G,G,/G,/ F,G, A,4 | D,8 |[M:3/2] z12 | %32
w: Do- * * * * * * * *||* mi- na An- ge- lo-|rum.||
 z12 | z12 | z12 | z12 | z12 | z4 E,2 F,2 ^G,2 A,2 | B,4 F,4 ^G,4 | E,4 E,2 ^D,2 E,2 F,2 | %40
w: |||||Sal- * ve *|ra- dix, *|sal- ve * * *|
 ^D,4 B,,8 | z12 | z4 A,4 A,4 | D,8 D,4 | E,8 A,,4 | E,12 | A,4 F,4 D,4 | G,4 F,4 E,4 | D,8 G,4- | %49
w: por- ta,||lux est|or- ta,|lux est|or-|ta, ex qua|mun- do *|lux est|
 G,4 A,8 | D,4 D,2 E,2 F,2 G,2 | A,4 E,4 F,4 | D,4 D,2 ^C,2 D,2 E,2 | ^C,4 A,,8 | z12 | z12 | z12 | %57
w: * or-|ta, sal- * ve *|ra- dix, *|sal- ve * * *|por- ta,||||
 z12 | z12 | z12 | z12 | z12 | z12 | z12 | z12 | z4 A,4 A,4 | B,4 B,4 z4 | z4 E,4 E,4 | %68
w: ||||||||ex qua|mun- do|lux est|
 A,4 A,4 z4 | z4 D,4 D,4 | E,6 E,2 A,,4 | E,12 | A,4 F,4 D,4 | G,4 F,4 E,4 | D,8 G,4- | G,4 A,8 | %76
w: or- ta,|lux est|or- ta, est|or-|ta, ex qua|mun- do *|lux est|* or-|
 D,12 | A,8 G,4- | G,4 A,8 | D,12 |[M:4/4] z8 | z8 | z8 | z8 | z8 | z8 | z8 | z8 | z8 | z8 | z8 | %91
w: ta,|lux est|* or-|ta.||||||||||||
 z8 | z8 | z8 | z8 | z8 | z8 | z8 | z8 | z8 | z8 | z8 | z8 | z8 | z8 | z8 | z8 | z8 | z8 | %109
w: ||||||||||||||||||
 z2 DD, A,A, z/ F,/G,/A,/ | B,/A,/B,/C/ B,C/B,/ A,A, z F, | G,/A,/G,/A,/ B,/A,/B,/^C/ DD z D, | %112
w: Va- le, va- le, o * *|val- * * * * de de- co- ra, o|val- * * * * * * * * de, o|
 E,/F,/E,/F,/ ^G,/E,/F,/G,/ A,A, z F, | G,F,E,D, A,/^G,/A,/B,/ A,2 | %114
w: val- * * * * * * * * de, o|val- * de de- co- * * * *|
 D,2 D,/E,/D,/E,/ F,/E,/D,/E,/ F,/E,/ F,/^G,/ | A,A, z F, G,2 E,D, | A,2 A,,2 D,2 D2- | %117
w: ra, val- * * * * * * * de * de- *|co- ra, o val- de de-|co- * ra, et|
 DG,CC B,/A,/B,/C/ B,2 | A,2 F, G,/A,/ B,/A,/G,/F,/ E,F,/G,/ | A,A, D,/E,/F,/G,/ A,/G,/A,/B,/ A,2 | %120
w: * pro no- bis Chri- * * * *|stum ex- o- * * * * * * * *|* ra, ex- * * * o- * * * *|
 D,4 z4 | z8 | z4 z2 A,2- | A,D,G,G, G,2 F,F, | E,4 D,2 F,G,/A,/ | %125
w: ra,||et|* pro no- bis Chri- stum ex-|o- ra, ex- * *|
 B,/A,/G,/F,/ E,F,/G,/ A,2 G,B,, | C,/E,/D,/C,/ D,2 G,,2 G,F, | G,2 F,E, D,D, F,G,/A,/ | %128
w: o- * * * * * * * ra, ex-|o- * * * * ra, ex- *|o- ra, ex- o- ra, ex- * *|
 B,/A,/G,/F,/ E,F,/G,/ A,2 A,D, | A,/G,/A,/B,/ A,2 D,2 D2- | DG,CC C2 B,B, | %131
w: o- * * * * * * * ra, ex-|o- * * * * ra, et|* pro no- bis Chri- stum ex-|
 A,/G,/A,/B,/ A,2 G,2 B,2- | B,E,A,G, F,2 G,G, | A,A, F,G,/A,/ B,/A,/G,/F,/ E,F,/G,/ | %134
w: o- * * * * ra, et|* pro no- bis Chri- stum ex-|o- ra, ex- * * o- * * * * * *|
 A,/G,/F,/E,/ D,D,/D,/ G,/B,/A,/G,/ A,2 | D,2 z D, A,,4 | D,16 |] %137
w: * * * * * ra, ex o- * * * *|ra, ex- o-|ra.|
V:4
 x8 | z8 | x8 | D,4 ^G,4 | A,8 | F,4 B,4 | G,4 A,4 | F,3 G,/A,/ B,2 A,2 | G,3 F, E,2 D,2 | %9
w: ||||4````3|6 *|* x|* * * * 6|* 6 7``6 *|
 A,,4 D,2 ^C,B,, | A,,4 A,,B,, ^C,A,, | D,E, F,D, G,A, B,G, | A,2 A,,2 D,E, F,D, | %13
w: 4````3 * * 6|x * * * 7||4 3 * * * 7|
 G,G,, B,,G,, C,D, E,C, | D,2 D,,2 G,,A,, B,,G,, | A,,A,/G,/ F,D, G,F, E,D, | A,,4 D,4 | %17
w: |4 3 * * * *||4`````3 7|
 G,2 F,E, D,3 E, | F,2 ^G,2 A,3 F, | B,3 A,/G,/ A,3 G,/F,/ | G,3 F,/E,/ F,3 E,/D,/ | %21
w: * 6 6`x * *|6 6````5 * *|7````6 * * 7``6 * *|7````6 * * 7````6 * *|
 E,2 D,G,, A,,4 | D,4 E,3 D,/C,/ | D,3 C,/B,,/ C,3 B,,/A,,/ | B,,3 A,,/G,,/ A,,2 G,,C, | D,4 G,,4 | %26
w: 6 * * 4```````3|* 7`````6 * *|7````6 * * 7````6 * *|7````6 * * 6 * *|4````3 *|
 D,4 A,4 | A,G,/F,/ G,F,/E,/ F,3 E,/D,/ | E,3 D,/^C,/ D,3 E,/F,/ | G,4 A,4 | D,8 |[M:3/2] D,12 | %32
w: 4``````3 4``````3|||* 4````3|||
 ^C,12 | B,,12 | A,,12 | ^G,12 | F,12 | E,12 | ^D,12 | ^C,12 | B,,12 | E,12 | A,,12 | D,12 | %44
w: 6|7````6|x|6|7`````6||6|7`````6|x|&x|x||
 E,8 A,,4 | E,12 | A,4 F,4 D,4 | G,4 F,4 E,4 | D,8 G,,4- | G,,4 A,,8 | D,12 | ^C,12 | B,,12 | %53
w: |4````3|* 6 *|* * 6``x||* 4```3||6|7````6|
 A,,8 A,4 | ^G,12 | F,12 | E,12 | ^D,12 | ^C,12 | B,,12 | E,12 | A,,12 | D,12 | E,8 D,4- | %64
w: x *|6|7````6|x|||x|x||||
 D,4 E,8 | A,12 | B,12 | E,12 | A,,12 | D,12 | E,8 A,,4 | E,12 | A,,4 F,4 D,4 | G,4 F,4 E,4 | %74
w: ||||||||||
 D,8 G,,4- | G,,4 A,,8 | D,2 ^C,2 D,2 E,2 F,2 G,2 | A,8 G,4- | G,4 A,8 | D,12 | %80
w: ||||||
[M:4/4] D,E, F,D, G,A, B,G, | A,B, ^CA, DC B,A, | G,F, E,D, C,A,, D,D,, | A,,C, A,G, F,G, F,E, | %84
w: ||6 * * * * * * *|4 * * 3`x * * 6`x *|
 D,E, F,D, G,A, B,^C | DG, A,A,, D,/^C,/D,/E,/ D,C, | B,,A,, B,,G,, C,/B,,/C,/D,/ C,B,, | %87
w: |||
 A,,F,, G,,A,, B,,/A,,/B,,/C,/ B,,A,, | G,,A,, B,,G,, C,B,,/A,,/ G,,F,, | %89
w: ||
 E,,A,, B,,2 E,/D,/E,/F,/ E,D, | ^C,A,, B,,C, D,/C,/D,/E,/ D,C, | B,,^C, D,B,, E,D, C,B,, | %92
w: |||
 A,,B,, ^C,A,, D,E, F,D, | E,D, ^C,A,, D,B,, E,E,, | A,B, ^CA, D,E, F,D, | E,F, ^G,E, A,G, F,E, | %96
w: |* * 6 * 5 * 3 *|||
 D^C B,A, ^G,E, A,A,, | E,B, ED ^CD CB, | A,B, ^CA, D,E, F,^G, | A,D, E,2 A,/^G,/A,/B,/ A,G, | %100
w: 6 * * * * * * *|4 * 3 * * * * 6|x * * * * * * *||
 F,E, F,D, G,/F,/G,/A,/ G,F, | E,^C, D,E, F,/E,/F,/G,/ F,E, | D,E, F,D, G,F,/E,/ D,^C, | %103
w: |||
 B,,E, F,F,, B,,/A,,/B,,/C,/ B,,A,, | ^G,,E,, F,,G,, A,,/G,,/A,,/B,,/ A,,G,, | %105
w: ||
 F,G, A,F, G,A, B,^C | DG, A,2 DC B,A, | G,F, E,D, ^C,A,, D,F, | G,F, E,D, A,G, A,A,, | %109
w: ||6 * * * * * * *|6 * * * 4 * 3 *|
 D,4 A,,2 F,2 | B,4 A,2 F,2 | G,2 F,E, D,4 | ^C,3 B,, A,,2 F,2 | G,F, E,D, A,,4 | D,6 ^C,B,, | %115
w: * * 6|7```````6 * *|* * 6 *|* 6 * *|* * * * 4```3|* * 6|
 A,,3 F, G,2 E,D, | A,,4 D,2 D2- | DG, CC B,4 | A,2 F,2 B,2 E,2 | A,,2 D,2 A,,4 | D4 DG, CC | %121
w: * * * 6 *|* x *|* * * 6 7`````6|6 * 7 *|7 * 4````3|5 6 * * *|
 C2 B,2 A,2 D2 | G,2 E,D, A,4- | A,D, G,G, G,2 F,2 | E,4 D,2 F,2 | B,2 E,2 A,2 G,C, | %126
w: $2 6 7 *|* 6 * *|* * 6 * $2`X 6|7````5 * 6|7 6 6`x * *|
 D,4 G,,2 G,F, | G,2 F,E, D,4 | B,,2 E,2 A,,3 D, | A,,4 D,2 D2- | DG, CC C2 B,2 | %131
w: |* 6 6`x *|7 * 7 *|4``````3 * *|2 * * 6 6 6|
 A,/G,/A,/B,/ A,2 G,2 B,2- | B,E, A,G, F,2 G,2 | A,2 F,2 B,2 E,2 | A,2 D,2 G,2 A,2 | D,4 A,,4 | %136
w: 7 * 6 * * * *||* 6 7 *|7 * 6````5 *|* 4`````3|
 D,16 |] %137
w: |

